X:25
T:Mad Moll. TLY.007
T:Peacock Followed The Hen. TLY007
M:9/4
L:1/4
Q:180
S:Wm.Tildesley,Swinton,Lancs.1860s.
R:Slip Jig
O:England.
A:Lancashire.
H:1860.
Z:Taz Tarry.
K:G
F|c>d e-c A A c A A|c>d e-c AA B2 G|c>d e c A A c A A|B>c d d>e d B2G|
|!
c>d e g-e e g-e e|c>d e g-e e f2 d|c>d e g-e e g-e e|B>c d d>e d B2
 G||

